_site/images/file.svg

<svg version="1.1" xmlns="http://www.w3.org/2000/svg" xmlns:xlink="http://www.w3.org/1999/xlink" width="40" height="40" viewBox="0 0 768 768" >
  <path
    fill="#3cb371"
    d="M160 0h448q39.75 0 67.875 28.125t28.125 67.875v576q0 39.75-28.125 67.875t-67.875 28.125h-448q-39.75 0-67.875-28.125t-28.125-67.875v-576q0-39.75 28.125-67.875t67.875-28.125zM256 544h256q13.25 0 22.625 9.375t9.375 22.625-9.375 22.625-22.625 9.375h-256q-13.25 0-22.625-9.375t-9.375-22.625 9.375-22.625 22.625-9.375zM256 416h256q13.25 0 22.625 9.375t9.375 22.625-9.375 22.625-22.625 9.375h-256q-13.25 0-22.625-9.375t-9.375-22.625 9.375-22.625 22.625-9.375zM608 64h-448q-13.25 0-22.625 9.375t-9.375 22.625v576q0 13.25 9.375 22.625t22.625 9.375h448q13.25 0 22.625-9.375t9.375-22.625v-576q0-13.25-9.375-22.625t-22.625-9.375zM256 288h256q13.25 0 22.625 9.375t9.375 22.625-9.375 22.625-22.625 9.375h-256q-13.25 0-22.625-9.375t-9.375-22.625 9.375-22.625 22.625-9.375zM256 160h128q13.25 0 22.625 9.375t9.375 22.625-9.375 22.625-22.625 9.375h-128q-13.25 0-22.625-9.375t-9.375-22.625 9.375-22.625 22.625-9.375z"
  ></path>
</svg>

<svg xmlns="http://www.w3.org/2000/svg" width="40" height="40" viewBox="0 0 768 768"><path fill="#3cb371" d="M160 0h448q39.75 0 67.875 28.125T704 96v576q0 39.75-28.125 67.875T608 768H160q-39.75 0-67.875-28.125T64 672V96q0-39.75 28.125-67.875T160 0zm96 544h256q13.25 0 22.625 9.375T544 576t-9.375 22.625T512 608H256q-13.25 0-22.625-9.375T224 576t9.375-22.625T256 544zm0-128h256q13.25 0 22.625 9.375T544 448t-9.375 22.625T512 480H256q-13.25 0-22.625-9.375T224 448t9.375-22.625T256 416zM608 64H160q-13.25 0-22.625 9.375T128 96v576q0 13.25 9.375 22.625T160 704h448q13.25 0 22.625-9.375T640 672V96q0-13.25-9.375-22.625T608 64zM256 288h256q13.25 0 22.625 9.375T544 320t-9.375 22.625T512 352H256q-13.25 0-22.625-9.375T224 320t9.375-22.625T256 288zm0-128h128q13.25 0 22.625 9.375T416 192t-9.375 22.625T384 224H256q-13.25 0-22.625-9.375T224 192t9.375-22.625T256 160z"/></svg>
